X: 95
T: Dulcis amica Dei
C: Gaspar van Weerbeke
%%abc-version 2.0
%%abcx-abcm2ps-target-version 5.9.1 (29 Sep 2008)
%%abc-creator hum2abc beta
%%abcx-conversion-date 2022/03/06 13:05:58
%%abc-copyright Copyright 2008, Pavanello, Agnese
%%abc-edited-by Mair-Gruber, Roland
%%humdrum-veritas 3190265068
%%humdrum-veritas-data 2164865727
%%linebreak <none>
%%barnumbers 0
L: 1/4
M: 3/2
N: Derived from Gas0419-Dulcis_amica_Dei.krn
V: 1 clef=treble
V: 2 clef=treble-8
V: 3 clef=treble-8
V: 4 clef=treble-8
V: 5 clef=bass
K: F
[V:1] z6 | 
[V:2] z6 | 
[V:3] z6 | 
[V:4] G4F2 | 
[V:5] G,,2B,,2A,,2 | 
[V:1] G4F2 | 
[V:2] z6 | 
[V:3] z6 | 
[V:4] G2B2A2 | 
[V:5] G,,C,B,,G,,D,2 | 
[V:1] G2B2A2 | 
[V:2] G4F2 | 
[V:3] z6 | 
[V:4] z6 | 
[V:5] G,,4D,2 | 
[V:1] D_EDG>FF- | 
[V:2] G2B2A2 | 
[V:3] z6 | 
[V:4] z2G2D2 | 
[V:5] z6 | 
[V:1] FA2FE2 | 
[V:2] D2zd2c | 
[V:3] z6 | 
[V:4] zF2DA2 | 
[V:5] z6 | 
[V:1] DBAG2^F | 
[V:2] BGFGA2 | 
[V:3] z6 | 
[V:4] z2z2D2 | 
[V:5] z6 | 
[V:1] G4B2 | 
[V:2] G2z2G2 | 
[V:3] z6 | 
[V:4] _EG>AB>cd- | 
[V:5] z6 | 
[V:1] A2G3G | 
[V:2] F2_E3_E | 
[V:3] z6 | 
[V:4] d/c/d_e/d/c/B/c2 | 
[V:5] z6 | 
[V:1] F4z2 | 
[V:2] D2zD2E | 
[V:3] z6 | 
[V:4] d3c/B/AG | 
[V:5] z6 | 
[V:1] zD2EF2 | 
[V:2] F2G2A2 | 
[V:3] z6 | 
[V:4] A>GE2D2 | 
[V:5] z6 | 
[V:1] G2A2Bc- | 
[V:2] Bc2d2c | 
[V:3] z6 | 
[V:4] zCF2GA- | 
[V:5] z6 | 
[V:1] c/B/A/G/FG2^F | 
[V:2] Ad2GA2 | 
[V:3] z6 | 
[V:4] A/G/FDED2 | 
[V:5] z6 | 
[V:1] G6 | 
[V:2] G6 | 
[V:3] z6 | 
[V:4] z2z2d2 | 
[V:5] G,,4G,2 | 
[V:1] z6 | 
[V:2] z6 | 
[V:3] z6 | 
[V:4] _ed2c/B/ c/B/A/G/ | 
[V:5] G,4_E,2 | 
[V:1] z6 | 
[V:2] z6 | 
[V:3] z6 | 
[V:4] F4E2 | 
[V:5] D,2>B,,2C,2 | 
[V:1] z6 | 
[V:2] z6 | 
[V:3] z6 | 
[V:4] D2zG2E | 
[V:5] G,,4B,,C, | 
[V:1] z6 | 
[V:2] z6 | 
[V:3] z6 | 
[V:4] FA2Bc3/B/ | 
[V:5] D,>E,F,G,E,F,- | 
[V:1] z6 | 
[V:2] z6 | 
[V:3] z6 | 
[V:4] AGFGA2 | 
[V:5] F,B,A,G,2F, | 
[V:1] z6 | 
[V:2] z6 | 
[V:3] z6 | 
[V:4] B>A G/F/GA3/G/ | 
[V:5] G,D,E,/D,/C,/B,,/A,,D,- | 
[V:1] z6 | 
[V:2] z6 | 
[V:3] z6 | 
[V:4] FEDG2^F | 
[V:5] D,C,B,,C,A,,2 | 
[V:1] z2z2G2- | 
[V:2] z2z2d2 | 
[V:3] z6 | 
[V:4] G4D2 | 
[V:5] G,,4G,,2 | 
[V:1] G2B4 | 
[V:2] _e2d2B2 | 
[V:3] G6 | 
[V:4] z2D4 | 
[V:5] C,2B,,2G,,2 | 
[V:1] A2A2c2 | 
[V:2] c4A2 | 
[V:3] F6 | 
[V:4] C4C2 | 
[V:5] A,,6 | 
[V:1] BG>FDE2 | 
[V:2] B4c2 | 
[V:3] G6 | 
[V:4] D3G2E | 
[V:5] G,,4C,2 | 
[V:1] D4z2 | 
[V:2] df>ed/c/d2 | 
[V:3] B6- | 
[V:4] F4F2 | 
[V:5] B,,6- | 
[V:1] F2GB2G | 
[V:2] B>cd2z2 | 
[V:3] B6 | 
[V:4] D4G2 | 
[V:5] B,,4G,,2 | 
[V:1] Ac>BA/G/A2 | 
[V:2] A2Ff2f | 
[V:3] c6 | 
[V:4] C2F4 | 
[V:5] F,,6 | 
[V:1] B2zB>AF | 
[V:2] d>c B/A/G2d | 
[V:3] B6 | 
[V:4] G3_E2D | 
[V:5] z6 | 
[V:1] G>FDFG2 | 
[V:2] B_e>dd2c | 
[V:3] z6 | 
[V:4] _ECD2_E2 | 
[V:5] z6 | 
[V:1] F4A2 | 
[V:2] d4zD | 
[V:3] A6- | 
[V:4] D2z2F3/E/ | 
[V:5] D,4D,2 | 
[V:1] c2B2G2- | 
[V:2] E>FG2d2 | 
[V:3] A2B4 | 
[V:4] C2D4 | 
[V:5] A,,2G,,4 | 
[V:1] GGA2A/G/F/E/ | 
[V:2] z2A>Bc2 | 
[V:3] c6 | 
[V:4] E2F3A | 
[V:5] C,2z2F,,2 | 
[V:1] DGA/G/F/E/^F2 | 
[V:2] zd>efd2 | 
[V:3] B2A4 | 
[V:4] BGD>E^FD | 
[V:5] G,,2D,4 | 
[V:1] G6 | 
[V:2] B2>G2G2 | 
[V:3] G6 | 
[V:4] D4z2 | 
[V:5] G,,6 | 
[V:1] z4D2 | 
[V:2] z6 | 
[V:3] z6 | 
[V:4] D2EF2D | 
[V:5] z6 | 
[V:1] EF2DCD- | 
[V:2] z6 | 
[V:3] z6 | 
[V:4] CD>EF/G/AB | 
[V:5] z6 | 
[V:1] D/E/F/G/ABG2 | 
[V:2] z6 | 
[V:3] z6 | 
[V:4] GAFG>FE/D/ | 
[V:5] z6 | 
[V:1] EDB,C2A, | 
[V:2] z6 | 
[V:3] z6 | 
[V:4] CG2EF2 | 
[V:5] z6 | 
[V:1] G,2z2z2 | 
[V:2] G>ABc2A | 
[V:3] z6 | 
[V:4] z6 | 
[V:5] zG,2E,F,2 | 
[V:1] z6 | 
[V:2] BG2GEF | 
[V:3] z6 | 
[V:4] z6 | 
[V:5] G,,>A,,B,,C,2A,, | 
[V:1] z6 | 
[V:2] G2DEFG- | 
[V:3] z6 | 
[V:4] z6 | 
[V:5] B,,G,,2C,A,,B,, | 
[V:1] z6 | 
[V:2] GABcd2 | 
[V:3] z6 | 
[V:4] z6 | 
[V:5] C,2G,,A,,B,,C,- | 
[V:1] z6 | 
[V:2] cB/AG/G2^F | 
[V:3] z6 | 
[V:4] z6 | 
[V:5] C,D,2B,,A,,2 | 
[V:1] z2G4 | 
[V:2] G4zG | 
[V:3] B6- | 
[V:4] D4_E_E | 
[V:5] G,,4z2 | 
[V:1] FG2F/_E/DG | 
[V:2] dBG2d2 | 
[V:3] B6 | 
[V:4] D_E2D/C/B,2 | 
[V:5] z2z2G,,2 | 
[V:1] F>GA3G/F/ | 
[V:2] d>ef>ec2 | 
[V:3] A6 | 
[V:4] z2F2A3/B/ | 
[V:5] D,4F,2 | 
[V:1] E4E2 | 
[V:2] z2c2c2 | 
[V:3] G4A2 | 
[V:4] c2zCE3/F/ | 
[V:5] C,4A,,C, | 
[V:1] D>EF2EG- | 
[V:2] B3/A//G//F2G2 | 
[V:3] B4c2- | 
[V:4] G>FD2C2 | 
[V:5] G,,2z2z2 | 
[V:1] GEF2F2 | 
[V:2] G>AB4 | 
[V:3] c2d4 | 
[V:4] E2D4 | 
[V:5] C,2B,,4 | 
[V:1] E>FGAGc- | 
[V:2] G2z2z2 | 
[V:3] c6 | 
[V:4] z2E>FGC | 
[V:5] C,4E,2 | 
[V:1] c=Bc4 | 
[V:2] z2z2c2 | 
[V:3] d2e4 | 
[V:4] F2G4 | 
[V:5] D,2C,4 | 
[V:1] F4F2 | 
[V:2] A2Ad2d | 
[V:3] d6 | 
[V:4] z2A4 | 
[V:5] D,6 | 
[V:1] G2AB2A | 
[V:2] BcAdc2 | 
[V:3] z6 | 
[V:4] GEFB,F2 | 
[V:5] z6 | 
[V:1] GB2G2^F | 
[V:2] B>cd_ed2 | 
[V:3] z6 | 
[V:4] Gd2c/B/A2 | 
[V:5] G,,2B,,C,D,2 | 
[V:1] G4B2 | 
[V:2] B2BGD2 | 
[V:3] d6- | 
[V:4] G4G2 | 
[V:5] G,,4G,,2 | 
[V:1] F>G A/B<cB/G | 
[V:2] z2A2G2 | 
[V:3] d2c4 | 
[V:4] D2E2E2 | 
[V:5] B,,2A,,2C,2 | 
[V:1] F2FB2A | 
[V:2] AB>cd/e/f2 | 
[V:3] d2>B2c2 | 
[V:4] D2z2F2 | 
[V:5] z2B,,G,,F,,2 | 
[V:1] B4FG | 
[V:2] d4dB | 
[V:3] B6- | 
[V:4] G3F/E/DG | 
[V:5] z6 | 
[V:1] D4D3/E/ | 
[V:2] f2z2z2 | 
[V:3] B6 | 
[V:4] F2FG>FD | 
[V:5] B,,2B,,G,,B,,3/C,/ | 
[V:1] F2z2A2 | 
[V:2] d4c2 | 
[V:3] A6 | 
[V:4] z2F3F | 
[V:5] D,4A,,2 | 
[V:1] DG2BA2 | 
[V:2] BGD>EF2 | 
[V:3] B4c2 | 
[V:4] G4C2 | 
[V:5] G,,4F,,2 | 
[V:1] G3F/E/DG | 
[V:2] DG>AB>cd- | 
[V:3] B6 | 
[V:4] zD>EDG2 | 
[V:5] G,,4G,,2 | 
[V:1] FA>GG2^F | 
[V:2] ddc_ed2 | 
[V:3] A6 | 
[V:4] AF3/E//D//CD2 | 
[V:5] D,2z2z2 | 
[V:1] G4z2 | 
[V:2] B3/c//d//_e2d_e | 
[V:3] G6- | 
[V:4] D2z2DC | 
[V:5] G,,2C,2B,,C, | 
[V:1] z2G4 | 
[V:2] d_e2dB2 | 
[V:3] G6 | 
[V:4] DG>AB/c/d2- | 
[V:5] B,,C,2B,,G,,2 | 
[V:1] F2F2G3/F/ | 
[V:2] A4B2 | 
[V:3] z6 | 
[V:4] d6 | 
[V:5] D,4G,,2 | 
[V:1] EDCzc2 | 
[V:2] cB_ed2c | 
[V:3] z6 | 
[V:4] cdGFE2 | 
[V:5] A,,B,,C,D,A,,2 | 
[V:1] BA2G2^F | 
[V:2] d4d2 | 
[V:3] z6 | 
[V:4] DFGBA2 | 
[V:5] B,,/C,/D,B,,G,,D,2 | 
[V:1] GB2AG3/_E/ | 
[V:2] B>c d/_e/f_ec | 
[V:3] z6 | 
[V:4] zG2FG2 | 
[V:5] G,,>A,, B,,/C,/D,_E,2 | 
[V:1] F6 ||  
[V:2] d6 ||  
[V:3] z6 ||  
[V:4] A6 ||  
[V:5] D,6 ||  
[V:1] [M:2/2]G4 | 
[V:2] [M:2/2]d4 | 
[V:3] [M:2/2]z4 | 
[V:4] [M:2/2]B4 | 
[V:5] [M:2/2]G,,4 | 
[V:1] G2G2 | 
[V:2] d2d2 | 
[V:3] z4 | 
[V:4] B2B2 | 
[V:5] G,,2G,,2 | 
[V:1] F3F | 
[V:2] d3d | 
[V:3] z4 | 
[V:4] A3A | 
[V:5] D,3D, | 
[V:1] F2F2 | 
[V:2] d2d2 | 
[V:3] z4 | 
[V:4] A2A2 | 
[V:5] D,2D,2 | 
[V:1] G2G2 | 
[V:2] d2d2 | 
[V:3] z4 | 
[V:4] B2B2 | 
[V:5] G,,2G,,2 | 
[V:1] G4 | 
[V:2] c3c | 
[V:3] z4 | 
[V:4] G4 | 
[V:5] C,4 | 
[V:1] E4 | 
[V:2] c2c2 | 
[V:3] z4 | 
[V:4] G2A2 | 
[V:5] C,4 | 
[V:1] D2D2 | 
[V:2] F4- | 
[V:3] z4 | 
[V:4] B4 | 
[V:5] B,,2B,,2 | 
[V:1] C4 | 
[V:2] F2F2 | 
[V:3] z4 | 
[V:4] A2A2 | 
[V:5] F,,4 | 
[V:1] B,2B,2 | 
[V:2] D2G2 | 
[V:3] z4 | 
[V:4] G2DE | 
[V:5] G,,2G,,2 | 
[V:1] D4 | 
[V:2] FGFB- | 
[V:3] z4 | 
[V:4] D>EFG- | 
[V:5] B,,4 | 
[V:1] D2D2 | 
[V:2] BA/G/FG | 
[V:3] z4 | 
[V:4] GF/E/D2 | 
[V:5] B,,2B,,2 | 
[V:1] C4 | 
[V:2] A>GE2 | 
[V:3] z4 | 
[V:4] E4 | 
[V:5] A,,4 | 
[V:1] D2EG | 
[V:2] D2z2 | 
[V:3] z4 | 
[V:4] z4 | 
[V:5] z4 | 
[V:1] F2E2 | 
[V:2] z4 | 
[V:3] z4 | 
[V:4] D2EG | 
[V:5] z4 | 
[V:1] FAG2 | 
[V:2] z4 | 
[V:3] z4 | 
[V:4] F2E2 | 
[V:5] z4 | 
[V:1] F2GB | 
[V:2] z4 | 
[V:3] z4 | 
[V:4] FAG2 | 
[V:5] z4 | 
[V:1] A2G2 | 
[V:2] z4 | 
[V:3] z4 | 
[V:4] F2GB | 
[V:5] z2G,,2 | 
[V:1] ECzD- | 
[V:2] z2G2 | 
[V:3] z4 | 
[V:4] A2GD | 
[V:5] A,,C,B,,2 | 
[V:1] DCD2 | 
[V:2] AcB2 | 
[V:3] z4 | 
[V:4] E2DF | 
[V:5] A,,2B,,D, | 
[V:1] zED2 | 
[V:2] A2Bd | 
[V:3] z4 | 
[V:4] E2F2 | 
[V:5] C,2B,,2 | 
[V:1] E2zF- | 
[V:2] c2B2 | 
[V:3] z4 | 
[V:4] EGF2 | 
[V:5] C,E,D,2 | 
[V:1] FEF2 | 
[V:2] ced2 | 
[V:3] z4 | 
[V:4] G2FA | 
[V:5] C,2D,2 | 
[V:1] zG2F/E/ | 
[V:2] c2cc | 
[V:3] z4 | 
[V:4] GCG2 | 
[V:5] E,4 | 
[V:1] F4 | 
[V:2] d4 | 
[V:3] z4 | 
[V:4] A4 | 
[V:5] D,4 | 
[V:1] G4 | 
[V:2] e4 | 
[V:3] z4 | 
[V:4] z4 | 
[V:5] z4 | 
[V:1] G2F3/G/ | 
[V:2] e2d2- | 
[V:3] z4 | 
[V:4] z4 | 
[V:5] z4 | 
[V:1] AB2A- | 
[V:2] d2c2 | 
[V:3] z4 | 
[V:4] z4 | 
[V:5] z4 | 
[V:1] AGAB- | 
[V:2] B2Ad- | 
[V:3] z4 | 
[V:4] z4 | 
[V:5] z4 | 
[V:1] B/A/G/F/G2 | 
[V:2] d/c/B/A/B2 | 
[V:3] z4 | 
[V:4] z4 | 
[V:5] z4 | 
[V:1] F4 | 
[V:2] A4 | 
[V:3] z4 | 
[V:4] D4 | 
[V:5] z4 | 
[V:1] G2B2- | 
[V:2] B2B2 | 
[V:3] G4- | 
[V:4] D4 | 
[V:5] G,,4 | 
[V:1] B2G2 | 
[V:2] d2c2- | 
[V:3] G4 | 
[V:4] D2E2 | 
[V:5] B,,2C,2 | 
[V:1] A4 | 
[V:2] c2A2 | 
[V:3] F4 | 
[V:4] C4 | 
[V:5] A,,4 | 
[V:1] D4 | 
[V:2] B4 | 
[V:3] G4 | 
[V:4] D4 | 
[V:5] G,,4 | 
[V:1] F2EG | 
[V:2] A2cB | 
[V:3] z4 | 
[V:4] z4 | 
[V:5] z4 | 
[V:1] FAGB- | 
[V:2] dced- | 
[V:3] z4 | 
[V:4] z4 | 
[V:5] z4 | 
[V:1] B/A/G2^F | 
[V:2] dBA2 | 
[V:3] z4 | 
[V:4] z4 | 
[V:5] z4 | 
[V:1] G4 | 
[V:2] G2zG | 
[V:3] B4- | 
[V:4] D4 | 
[V:5] G,,4 | 
[V:1] G2G2 | 
[V:2] d2B2 | 
[V:3] B4 | 
[V:4] D3E | 
[V:5] G,,4 | 
[V:1] A4 | 
[V:2] A4 | 
[V:3] c4 | 
[V:4] F2F2 | 
[V:5] F,,2F,,2 | 
[V:1] B2G2 | 
[V:2] G2G2 | 
[V:3] B4- | 
[V:4] D4- | 
[V:5] G,,3A,, | 
[V:1] D4 | 
[V:2] F2F2 | 
[V:3] B4 | 
[V:4] D4 | 
[V:5] B,,4 | 
[V:1] C>D E/F/G | 
[V:2] E4 | 
[V:3] z4 | 
[V:4] z4 | 
[V:5] z4 | 
[V:1] FA2G/F/ | 
[V:2] DF>GA- | 
[V:3] z4 | 
[V:4] z4 | 
[V:5] z4 | 
[V:1] E2FD | 
[V:2] AGAF | 
[V:3] z4 | 
[V:4] z4 | 
[V:5] z4 | 
[V:1] C2E3/F/ | 
[V:2] E4- | 
[V:3] A4- | 
[V:4] A2c2- | 
[V:5] A,,4 | 
[V:1] EA>GE- | 
[V:2] E4 | 
[V:3] A4- | 
[V:4] cc2A- | 
[V:5] A,,4 | 
[V:1] ED2^C | 
[V:2] z2A2 | 
[V:3] A4 | 
[V:4] AFE2 | 
[V:5] A,,2A,,2 | 
[V:1] D2B,2 | 
[V:2] F2D2 | 
[V:3] z4 | 
[V:4] D2G2- | 
[V:5] B,,4 | 
[V:1] _E2C2 | 
[V:2] z2G2 | 
[V:3] z4 | 
[V:4] GF_E2 | 
[V:5] C,4 | 
[V:1] D2B,2 | 
[V:2] B>cd3/_e/ | 
[V:3] B4 | 
[V:4] D2G2- | 
[V:5] B,,2G,,2 | 
[V:1] A,4 | 
[V:2] f2z2 | 
[V:3] c4 | 
[V:4] G2^F2 | 
[V:5] A,,4 | 
[V:1] z4 | 
[V:2] d4 | 
[V:3] B2G2 | 
[V:4] G4 | 
[V:5] G,,4 | 
[V:1] A4 | 
[V:2] d2d2 | 
[V:3] A4 | 
[V:4] D4 | 
[V:5] z4 | 
[V:1] B3G | 
[V:2] B4 | 
[V:3] G4- | 
[V:4] D2D2 | 
[V:5] G,,2G,,2 | 
[V:1] G4 | 
[V:2] c4 | 
[V:3] G4 | 
[V:4] E3F | 
[V:5] C,2C,3/D,/ | 
[V:1] z4 | 
[V:2] z4 | 
[V:3] z4 | 
[V:4] G2A2 | 
[V:5] E,2F,2 | 
[V:1] z4 | 
[V:2] z4 | 
[V:3] z4 | 
[V:4] GB>Ac- | 
[V:5] E,D,G,E, | 
[V:1] z4 | 
[V:2] z4 | 
[V:3] z4 | 
[V:4] c/B/A/G/AB- | 
[V:5] F,>G,D,2 | 
[V:1] z4 | 
[V:2] z4 | 
[V:3] z4 | 
[V:4] BG2^F | 
[V:5] D,B,,A,,2 | 
[V:1] G3F | 
[V:2] d4 | 
[V:3] B4- | 
[V:4] G2G2 | 
[V:5] G,,2G,,2 | 
[V:1] D2G2- | 
[V:2] d4 | 
[V:3] B4 | 
[V:4] G4 | 
[V:5] G,,2G,,2 | 
[V:1] G2F2 | 
[V:2] d>cA2 | 
[V:3] A4 | 
[V:4] D2d2- | 
[V:5] z2D,2 | 
[V:1] G2_E2 | 
[V:2] z4 | 
[V:3] G4 | 
[V:4] d2c2 | 
[V:5] _E,2E,2 | 
[V:1] F2F3/_E/ | 
[V:2] z2d2 | 
[V:3] A4 | 
[V:4] d4 | 
[V:5] D,2D,2 | 
[V:1] D>CA,G, | 
[V:2] f3_e | 
[V:3] z4 | 
[V:4] z4 | 
[V:5] z4 | 
[V:1] B,A,G,C | 
[V:2] dcBA | 
[V:3] z4 | 
[V:4] z4 | 
[V:5] z4 | 
[V:1] B,A,DC- | 
[V:2] GFBA- | 
[V:3] z4 | 
[V:4] z4 | 
[V:5] z4 | 
[V:1] C/D/B,A,2 | 
[V:2] AG2^F | 
[V:3] z4 | 
[V:4] z4 | 
[V:5] z4 | 
[V:1] G,2G2- | 
[V:2] G4 | 
[V:3] B4 | 
[V:4] D4 | 
[V:5] G,,4 | 
[V:1] G2E2 | 
[V:2] z2G2 | 
[V:3] c4 | 
[V:4] E2E2 | 
[V:5] C,4 | 
[V:1] F3G | 
[V:2] B4 | 
[V:3] d4 | 
[V:4] D4 | 
[V:5] B,,4 | 
[V:1] A4 | 
[V:2] A4 | 
[V:3] c4 | 
[V:4] F2F2 | 
[V:5] F,,4- | 
[V:1] A4 | 
[V:2] F>GA2 | 
[V:3] c4 | 
[V:4] F4 | 
[V:5] F,,2F,,2 | 
[V:1] B2B2 | 
[V:2] D2F2 | 
[V:3] d4 | 
[V:4] F4 | 
[V:5] B,,2D,2 | 
[V:1] c4 | 
[V:2] G3A | 
[V:3] e4 | 
[V:4] z4 | 
[V:5] C,4 | 
[V:1] F4 | 
[V:2] B4- | 
[V:3] d4- | 
[V:4] F4 | 
[V:5] B,,4 | 
[V:1] B4 | 
[V:2] B4 | 
[V:3] d4- | 
[V:4] F4 | 
[V:5] B,,4 | 
[V:1] B4 | 
[V:2] B>cd_e | 
[V:3] d4- | 
[V:4] F2F2 | 
[V:5] B,,2B,,2 | 
[V:1] A4 | 
[V:2] f4 | 
[V:3] d4 | 
[V:4] F4 | 
[V:5] D,4 | 
[V:1] B3A/G/ | 
[V:2] d2B2 | 
[V:3] z4 | 
[V:4] G4 | 
[V:5] B,,2G,,2 | 
[V:1] F2G2- | 
[V:2] A2G2 | 
[V:3] z4 | 
[V:4] A2B2 | 
[V:5] D,2zG, | 
[V:1] G2F2- | 
[V:2] EGAB | 
[V:3] z4 | 
[V:4] c2d2 | 
[V:5] C,E,D,B,, | 
[V:1] FDE2 | 
[V:2] cF2E | 
[V:3] z4 | 
[V:4] cB2A | 
[V:5] A,,B,,C,2 | 
[V:1] D4 | 
[V:2] F2z2 | 
[V:3] d4- | 
[V:4] B4 | 
[V:5] B,,4 | 
[V:1] z4 | 
[V:2] D2FG- | 
[V:3] d4- | 
[V:4] F2AB- | 
[V:5] z4 | 
[V:1] z2F2 | 
[V:2] GF/E/D2 | 
[V:3] d4- | 
[V:4] BA/G/F2 | 
[V:5] z4 | 
[V:1] AB2A/G/ | 
[V:2] d/c/B/A/G2 | 
[V:3] d4 | 
[V:4] FG2F/E/ | 
[V:5] z4 | 
[V:1] F2FG- | 
[V:2] A2Bd | 
[V:3] z4 | 
[V:4] D2z2 | 
[V:5] zD,2B,, | 
[V:1] GF/E/D2 | 
[V:2] c2Ad- | 
[V:3] z4 | 
[V:4] G2FF | 
[V:5] C,2D,2 | 
[V:1] z4 | 
[V:2] dczd- | 
[V:3] z4 | 
[V:4] E2D2 | 
[V:5] G,2F,F, | 
[V:1] G2FF | 
[V:2] d/e<cd/B | 
[V:3] z4 | 
[V:4] z2zF | 
[V:5] E,2D,2 | 
[V:1] E2D2 | 
[V:2] c2A2 | 
[V:3] z4 | 
[V:4] GEF2 | 
[V:5] C,2D,2 | 
[V:1] z2F2- | 
[V:2] B2F2 | 
[V:3] d4 | 
[V:4] D4 | 
[V:5] B,,4 | 
[V:1] FGA2 | 
[V:2] B2A2 | 
[V:3] d2c2 | 
[V:4] B,2F2 | 
[V:5] z2F,,2 | 
[V:1] Bc>BB- | 
[V:2] GFGD | 
[V:3] BAB2 | 
[V:4] DCD2 | 
[V:5] G,,A,,G,,D, | 
[V:1] BAAG/A/ | 
[V:2] F/G/A/B/c2 | 
[V:3] c4 | 
[V:4] z2F2- | 
[V:5] F,,4 | 
[V:1] B4 | 
[V:2] d3f- | 
[V:3] B4- | 
[V:4] F2GF | 
[V:5] B,,4 | 
[V:1] z4 | 
[V:2] f/ e/d2c/B/ | 
[V:3] B4 | 
[V:4] D2G2 | 
[V:5] z4 | 
[V:1] z4 | 
[V:2] AB/c/dc | 
[V:3] z4 | 
[V:4] F>GBA- | 
[V:5] D,2B,,C, | 
[V:1] z4 | 
[V:2] ABA2 | 
[V:3] z4 | 
[V:4] AG2^F | 
[V:5] D,B,,C,D, | 
[V:1] z2G2- | 
[V:2] GB2_e- | 
[V:3] z4 | 
[V:4] G4 | 
[V:5] _E,4 | 
[V:1] G2G2 | 
[V:2] ed/c/BG | 
[V:3] z4 | 
[V:4] G2G2 | 
[V:5] _E,2E,2 | 
[V:1] D2F2 | 
[V:2] d2d2 | 
[V:3] B4- | 
[V:4] F2D2 | 
[V:5] B,,2B,,2 | 
[V:1] G4 | 
[V:2] z4 | 
[V:3] B4 | 
[V:4] D4 | 
[V:5] G,,4 | 
[V:1] [M:3/2]A4F2- | 
[V:2] [M:3/2]d4d2 | 
[V:3] [M:3/2]A6- | 
[V:4] [M:3/2]F4F2- | 
[V:5] [M:3/2]D,4D,2- | 
[V:1] F2D4 | 
[V:2] f2f4 | 
[V:3] A2B4 | 
[V:4] F2F4 | 
[V:5] D,2D,4 | 
[V:1] G4E2 | 
[V:2] e4c2 | 
[V:3] c6- | 
[V:4] G4G2 | 
[V:5] C,4C,2- | 
[V:1] C2E3F | 
[V:2] A2>B2c2 | 
[V:3] c6 | 
[V:4] E2C4 | 
[V:5] C,2A,,4 | 
[V:1] G4^F2 | 
[V:2] d4d2 | 
[V:3] B2A4 | 
[V:4] z6 | 
[V:5] G,,2D,4 | 
[V:1] G4E2 | 
[V:2] B4c2 | 
[V:3] G6- | 
[V:4] z6 | 
[V:5] G,,4C,2 | 
[V:1] E2>C2D2 | 
[V:2] G2>A2B2 | 
[V:3] G6 | 
[V:4] z6 | 
[V:5] C,4B,,2 | 
[V:1] C2D2G2- | 
[V:2] _e2d2_e2 | 
[V:3] G6- | 
[V:4] z6 | 
[V:5] C,2G,,2C,2 | 
[V:1] G2G4 | 
[V:2] d4c2 | 
[V:3] G6 | 
[V:4] z6 | 
[V:5] D,2_E,4 | 
[V:1] F4D2 | 
[V:2] d6 | 
[V:3] z6 | 
[V:4] A4B2 | 
[V:5] D,4D,2 | 
[V:1] C4C2 | 
[V:2] z6 | 
[V:3] z6 | 
[V:4] A2>B2c2 | 
[V:5] F,4F,2 | 
[V:1] F2G4 | 
[V:2] A4G2 | 
[V:3] z6 | 
[V:4] d4c2 | 
[V:5] F,2_E,4 | 
[V:1] F4z2 | 
[V:2] A4F2 | 
[V:3] z6 | 
[V:4] d6 | 
[V:5] D,4z2 | 
[V:1] F4B2 | 
[V:2] D2F2f2- | 
[V:3] z6 | 
[V:4] d4d2 | 
[V:5] D,4B,,2 | 
[V:1] A2G4 | 
[V:2] f2d4 | 
[V:3] z6 | 
[V:4] c2B4 | 
[V:5] F,2G,4 | 
[V:1] A4E2- | 
[V:2] f4z2 | 
[V:3] z6 | 
[V:4] A4G2- | 
[V:5] F,4C,2- | 
[V:1] E2G4 | 
[V:2] z2d4 | 
[V:3] z6 | 
[V:4] G2B4 | 
[V:5] C,2G,,4 | 
[V:1] G2G4 | 
[V:2] d2d4 | 
[V:3] z6 | 
[V:4] B2B4 | 
[V:5] G,,2G,,4 | 
[V:1] E4E2 | 
[V:2] c4c2 | 
[V:3] z6 | 
[V:4] A4G2 | 
[V:5] A,,4C,2 | 
[V:1] F4E2 | 
[V:2] A4c2 | 
[V:3] z6 | 
[V:4] F4G2 | 
[V:5] D,4C,2 | 
[V:1] D4^C2 | 
[V:2] G2A4 | 
[V:3] z6 | 
[V:4] D2E4 | 
[V:5] B,,2A,,4 | 
[V:1] D4C2 | 
[V:2] F4z2 | 
[V:3] z6 | 
[V:4] D4z2 | 
[V:5] z6 | 
[V:1] B,2G,2z2 | 
[V:2] G2B2c2 | 
[V:3] z6 | 
[V:4] z6 | 
[V:5] z6 | 
[V:1] z6 | 
[V:2] d4c2 | 
[V:3] z6 | 
[V:4] z6 | 
[V:5] G,,2B,,2C,2 | 
[V:1] z6 | 
[V:2] B4A2 | 
[V:3] z6 | 
[V:4] z6 | 
[V:5] D,4C,2 | 
[V:1] D2F2G2 | 
[V:2] B4G2 | 
[V:3] z6 | 
[V:4] z6 | 
[V:5] B,,2D,2E,2 | 
[V:1] A4B2 | 
[V:2] F2D3E | 
[V:3] z6 | 
[V:4] D2F2G2 | 
[V:5] F,2B,,2G,,2 | 
[V:1] c2>B2AG | 
[V:2] F2>G2A2 | 
[V:3] z6 | 
[V:4] A4c2 | 
[V:5] F,,4z2 | 
[V:1] B4G2 | 
[V:2] D2B2c2 | 
[V:3] z6 | 
[V:4] d4G2 | 
[V:5] B,,4_E,2 | 
[V:1] F2A3G | 
[V:2] d2>c2d2 | 
[V:3] z6 | 
[V:4] A2F2B2 | 
[V:5] D,4G,2 | 
[V:1] G4^F2 | 
[V:2] _e2d4 | 
[V:3] z6 | 
[V:4] c2A4 | 
[V:5] C,2D,4 | 
[V:1] G6 |]  
[V:2] d6 |]  
[V:3] G6 |]  
[V:4] G6 |]  
[V:5] G,,6 |]  


